libs/islamic-website/markets-page/src/assets/images/sushi.svg

<svg fill="none" height="48" viewBox="0 0 48 48" width="48" xmlns="http://www.w3.org/2000/svg" xmlns:xlink="http://www.w3.org/1999/xlink"><linearGradient id="a" gradientUnits="userSpaceOnUse" x1="16.2946" x2="31.7039" y1="1.25738" y2="46.728"><stop offset="0" stop-color="#27b0e6"/><stop offset=".107" stop-color="#49a1db"/><stop offset=".288" stop-color="#7d8aca"/><stop offset=".445" stop-color="#a279bd"/><stop offset=".572" stop-color="#ba6fb6"/><stop offset=".651" stop-color="#c26bb3"/><stop offset=".678" stop-color="#d563ad"/><stop offset=".715" stop-color="#e65ba7"/><stop offset=".76" stop-color="#f156a3"/><stop offset=".824" stop-color="#f853a1"/><stop offset="1" stop-color="#fa52a0"/></linearGradient><g clip-rule="evenodd" fill-rule="evenodd"><path d="m46.9969 30.5694-9.3629 13.0904c-1.3634 1.9088-4.0223 2.7496-7.4085 2.4771-4.7045-.4092-10.9542-2.9091-16.9309-7.2039-1.949-1.3836-3.79023-2.913-5.50789-4.575-3.16704-3.0759-5.49479-6.2759-6.74134-9.1292-1.363394-3.136-1.408484-5.9084-.04509-7.8172l9.38512-13.09046c1.3639-1.90885 4-2.74957 7.409-2.47709 4.7045.38643 10.9314 2.90909 16.9304 7.18158 5.9773 4.29527 10.3637 9.40847 12.227 13.72657.1609.3704.3035.7355.4276 1.0952.9265 2.6837.8199 5.0386-.3825 6.722z" fill="url(#a)"/><path d="m45.497 23.3882c-1.7954-4.1135-6-8.9542-11.7265-13.0449-5.7043-4.09066-11.6354-6.52217-16.1125-6.88581-2.7273-.22739-4.8863.27297-5.9767 1.79539l-.0461.09067c-1.0225 1.52291-.7951 3.68194.273 6.13625 1.7954 4.1362 5.9995 8.9765 11.7042 13.0671 5.7038 4.0908 11.6354 6.5227 16.112 6.8863 2.6817.2042 4.7957-.2729 5.9089-1.7046l.0683-.1135c1.0909-1.5002.8636-3.7271-.2046-6.2269zm-8.3859.0911c-.4999.704-1.5224.9091-2.7724.7952-2.2501-.1819-5.2043-1.409-8.0678-3.4541-2.8636-2.0456-4.977-4.4548-5.8633-6.5227-.4999-1.1588-.6361-2.1813-.1363-2.8863.5004-.7045 1.5229-.9091 2.7952-.8179 2.2269.2046 5.2044 1.409 8.0451 3.4545 2.8635 2.0451 4.9769 4.4766 5.8632 6.545.5227 1.1588.659 2.1813.1363 2.8863z" fill="#fff"/></g></svg>

<svg width="48" height="48" viewBox="0 0 48 48" fill="none" xmlns="http://www.w3.org/2000/svg">
<path fill-rule="evenodd" clip-rule="evenodd" d="M46.9969 30.5694L37.634 43.6598C36.2706 45.5686 33.6117 46.4094 30.2255 46.1369C25.521 45.7277 19.2713 43.2278 13.2946 38.933C11.3456 37.5494 9.50437 36.02 7.78671 34.358C4.61967 31.2821 2.29192 28.0821 1.04537 25.2288C-0.318024 22.0928 -0.363114 19.3204 1.00028 17.4116L10.3854 4.32114C11.7493 2.41229 14.3854 1.57157 17.7944 1.84405C22.4989 2.23048 28.7258 4.75314 34.7248 9.02563C40.7021 13.3209 45.0885 18.4341 46.9518 22.7522C47.1127 23.1226 47.2553 23.4877 47.3794 23.8474C48.3059 26.5311 48.1993 28.886 46.9969 30.5694Z" fill="url(#paint0_linear_2818_63036)"/>
<path fill-rule="evenodd" clip-rule="evenodd" d="M45.497 23.3882C43.7016 19.2747 39.497 14.434 33.7705 10.3433C28.0662 6.25264 22.1351 3.82113 17.658 3.45749C14.9307 3.2301 12.7717 3.73046 11.6813 5.25288L11.6352 5.34355C10.6127 6.86646 10.8401 9.02549 11.9082 11.4798C13.7036 15.616 17.9077 20.4563 23.6124 24.5469C29.3162 28.6377 35.2478 31.0696 39.7244 31.4332C42.4061 31.6374 44.5201 31.1603 45.6333 29.7286L45.7016 29.6151C46.7925 28.1149 46.5652 25.888 45.497 23.3882ZM37.1111 23.4793C36.6112 24.1833 35.5887 24.3884 34.3387 24.2745C32.0886 24.0926 29.1344 22.8655 26.2709 20.8204C23.4073 18.7748 21.2939 16.3656 20.4076 14.2977C19.9077 13.1389 19.7715 12.1164 20.2713 11.4114C20.7717 10.7069 21.7942 10.5023 23.0665 10.5935C25.2934 10.7981 28.2709 12.0025 31.1116 14.048C33.9751 16.0931 36.0885 18.5246 36.9748 20.593C37.4975 21.7518 37.6338 22.7743 37.1111 23.4793Z" fill="white"/>
<defs>
<linearGradient id="paint0_linear_2818_63036" x1="16.2946" y1="1.25738" x2="31.7039" y2="46.728" gradientUnits="userSpaceOnUse">
<stop stop-color="#27B0E6"/>
<stop offset="0.107" stop-color="#49A1DB"/>
<stop offset="0.288" stop-color="#7D8ACA"/>
<stop offset="0.445" stop-color="#A279BD"/>
<stop offset="0.572" stop-color="#BA6FB6"/>
<stop offset="0.651" stop-color="#C26BB3"/>
<stop offset="0.678" stop-color="#D563AD"/>
<stop offset="0.715" stop-color="#E65BA7"/>
<stop offset="0.76" stop-color="#F156A3"/>
<stop offset="0.824" stop-color="#F853A1"/>
<stop offset="1" stop-color="#FA52A0"/>
</linearGradient>
</defs>
</svg>
